X: 1
T: Cheese Whistle, The
M: 4/4
L: 1/8
R: reel
K: Dmaj
|:~F3B AFEF|DBBA FBBA|~F3B AFEF|1dfec dBAG:|2dfec d2de||
|:fBBA fBBA|egfe dBAB|EFFE DEFA|1dfec dBAe:|2dfec d2AG||
